; generated by Slic3r 1.2.6 on 2015-02-17 at 21:47:02

; external perimeters extrusion width = 0.40mm
; perimeters extrusion width = 0.48mm
; infill extrusion width = 0.48mm
; solid infill extrusion width = 0.48mm
; top infill extrusion width = 0.48mm

M107 ; disable fan
M104 S200 ; set temperature
G28 ; home all pillars
G29 ; z probe
G1 X0 Y0 Z0 ; plug nozzle to stop ooze
M109 S200 ; wait for temperature to be reached
G21 ; set units to millimeters
G90 ; use absolute coordinates
M82 ; use absolute distances for extrusion
G92 E0 ; reset extrusion distance
G1 Z0.350 F7800.000 ; move to next layer (0)
G1 E-3.00000 F1800.00000 ; retract
G92 E0 ; reset extrusion distance
G1 X0.000 Y20.064 F7800.000 ; move to first skirt point
G1 E3.00000 F1800.00000 ; unretract
G1 X-1.150 Y20.064 E3.10455 F1080.000 ; skirt
G1 X-3.047 Y19.865 E3.27800 ; skirt
G1 X-5.296 Y19.387 E3.48710 ; skirt
G1 X-7.110 Y18.797 E3.66055 ; skirt
G1 X-9.211 Y17.862 E3.86965 ; skirt
G1 X-10.863 Y16.908 E4.04311 ; skirt
G1 X-12.724 Y15.556 E4.25222 ; skirt
G1 X-14.141 Y14.280 E4.42567 ; skirt
G1 X-15.680 Y12.571 E4.63477 ; skirt
G1 X-16.801 Y11.028 E4.80822 ; skirt
G1 X-17.951 Y9.036 E5.01733 ; skirt
G1 X-18.727 Y7.294 E5.19078 ; skirt
G1 X-19.438 Y5.107 E5.39989 ; skirt
G1 X-19.834 Y3.241 E5.57332 ; skirt
G1 X-20.074 Y0.954 E5.78243 ; skirt
G1 X-20.074 Y-0.954 E5.95589 ; skirt
G1 X-19.834 Y-3.241 E6.16500 ; skirt
G1 X-19.437 Y-5.107 E6.33843 ; skirt
G1 X-18.727 Y-7.294 E6.54754 ; skirt
G1 X-17.951 Y-9.036 E6.72099 ; skirt
G1 X-16.801 Y-11.028 E6.93010 ; skirt
G1 X-15.680 Y-12.571 E7.10355 ; skirt
G1 X-14.141 Y-14.280 E7.31266 ; skirt
G1 X-12.724 Y-15.556 E7.48610 ; skirt
G1 X-10.863 Y-16.908 E7.69521 ; skirt
G1 X-9.211 Y-17.862 E7.86867 ; skirt
G1 X-7.110 Y-18.797 E8.07777 ; skirt
G1 X-5.296 Y-19.387 E8.25122 ; skirt
G1 X-3.047 Y-19.865 E8.46032 ; skirt
G1 X-1.150 Y-20.064 E8.63377 ; skirt
G1 X1.150 Y-20.064 E8.84287 ; skirt
G1 X3.047 Y-19.865 E9.01631 ; skirt
G1 X5.296 Y-19.387 E9.22542 F1080.000 ; skirt
G1 X7.110 Y-18.797 E9.39887 ; skirt
G1 X9.211 Y-17.862 E9.60797 ; skirt
G1 X10.863 Y-16.908 E9.78143 ; skirt
G1 X12.724 Y-15.556 E9.99054 ; skirt
G1 X14.141 Y-14.280 E10.16399 ; skirt
G1 X15.680 Y-12.571 E10.37309 ; skirt
G1 X16.801 Y-11.028 E10.54654 ; skirt
G1 X17.850 Y-9.211 E10.73735 ; skirt
G1 X17.951 Y-9.036 E10.75565 ; skirt
G1 X18.727 Y-7.294 E10.92910 ; skirt
G1 X19.437 Y-5.107 E11.13821 ; skirt
G1 X19.834 Y-3.241 E11.31164 ; skirt
G1 X20.074 Y-0.954 E11.52075 ; skirt
G1 X20.074 Y0.954 E11.69421 ; skirt
G1 X19.834 Y3.241 E11.90332 ; skirt
G1 X19.437 Y5.107 E12.07675 ; skirt
G1 X18.727 Y7.294 E12.28586 ; skirt
G1 X17.951 Y9.036 E12.45931 ; skirt
G1 X16.801 Y11.028 E12.66842 ; skirt
G1 X15.680 Y12.571 E12.84187 ; skirt
G1 X14.141 Y14.280 E13.05097 ; skirt
G1 X12.724 Y15.556 E13.22442 ; skirt
G1 X10.863 Y16.908 E13.43353 ; skirt
G1 X9.211 Y17.862 E13.60699 ; skirt
G1 X7.110 Y18.797 E13.81609 ; skirt
G1 X5.296 Y19.387 E13.98954 ; skirt
G1 X3.047 Y19.865 E14.19864 ; skirt
G1 X1.150 Y20.064 E14.37209 ; skirt
G1 X0.060 Y20.064 E14.47118 ; skirt
G1 X0.000 Y19.439 F7800.000 ; move to first skirt point
G1 X-1.150 Y19.439 E14.57574 F1080.000 ; skirt
G1 X-2.917 Y19.254 E14.73730 ; skirt
G1 X-5.166 Y18.775 E14.94641 ; skirt
G1 X-6.856 Y18.226 E15.10798 ; skirt
G1 X-8.957 Y17.291 E15.31708 ; skirt
G1 X-10.496 Y16.403 E15.47865 ; skirt
G1 X-12.356 Y15.051 E15.68776 ; skirt
G1 X-13.677 Y13.862 E15.84933 ; skirt
G1 X-15.216 Y12.153 E16.05844 ; skirt
G1 X-16.260 Y10.715 E16.22001 ; skirt
G1 X-17.410 Y8.724 E16.42912 ; skirt
G1 X-18.133 Y7.101 E16.59069 ; skirt
G1 X-18.843 Y4.913 E16.79980 ; skirt
G1 X-19.213 Y3.176 E16.96135 ; skirt
G1 X-19.453 Y0.888 E17.17046 ; skirt
G1 X-19.453 Y-0.889 E17.33205 ; skirt
G1 X-19.213 Y-3.176 E17.54115 ; skirt
G1 X-18.843 Y-4.913 E17.70271 ; skirt
G1 X-18.133 Y-7.101 E17.91182 ; skirt
G1 X-17.410 Y-8.724 E18.07339 ; skirt
G1 X-16.260 Y-10.715 E18.28250 ; skirt
G1 X-15.216 Y-12.153 E18.44407 ; skirt
G1 X-13.677 Y-13.862 E18.65317 ; skirt
G1 X-12.356 Y-15.051 E18.81474 ; skirt
G1 X-10.496 Y-16.403 E19.02385 ; skirt
G1 X-8.957 Y-17.291 E19.18542 ; skirt
G1 X-6.856 Y-18.226 E19.39453 ; skirt
G1 X-5.166 Y-18.775 E19.55610 ; skirt
G1 X-2.917 Y-19.254 E19.76520 ; skirt
G1 X-1.150 Y-19.439 E19.92677 ; skirt
G1 X1.150 Y-19.439 E20.13587 ; skirt
G1 X2.917 Y-19.254 E20.29743 ; skirt
G1 X5.166 Y-18.775 E20.50654 F1080.000 ; skirt
G1 X6.856 Y-18.226 E20.66811 ; skirt
G1 X8.957 Y-17.291 E20.87722 ; skirt
G1 X10.496 Y-16.403 E21.03880 ; skirt
G1 X12.356 Y-15.051 E21.24790 ; skirt
G1 X13.677 Y-13.862 E21.40947 ; skirt
G1 X15.216 Y-12.153 E21.61858 ; skirt
G1 X16.260 Y-10.715 E21.78015 ; skirt
G1 X17.309 Y-8.898 E21.97096 ; skirt
G1 X17.410 Y-8.724 E21.98925 ; skirt
G1 X18.133 Y-7.101 E22.15083 ; skirt
G1 X18.843 Y-4.913 E22.35993 ; skirt
G1 X19.213 Y-3.176 E22.52149 ; skirt
G1 X19.453 Y-0.889 E22.73060 ; skirt
G1 X19.453 Y0.889 E22.89218 ; skirt
G1 X19.213 Y3.176 E23.10129 ; skirt
G1 X18.843 Y4.913 E23.26284 ; skirt
G1 X18.133 Y7.101 E23.47195 ; skirt
G1 X17.410 Y8.724 E23.63353 ; skirt
G1 X16.260 Y10.715 E23.84263 ; skirt
G1 X15.216 Y12.153 E24.00420 ; skirt
G1 X13.677 Y13.862 E24.21331 ; skirt
G1 X12.356 Y15.051 E24.37488 ; skirt
G1 X10.496 Y16.403 E24.58398 ; skirt
G1 X8.957 Y17.291 E24.74556 ; skirt
G1 X6.856 Y18.226 E24.95466 ; skirt
G1 X5.166 Y18.775 E25.11624 ; skirt
G1 X2.917 Y19.254 E25.32534 ; skirt
G1 X1.150 Y19.439 E25.48691 ; skirt
G1 X0.060 Y19.439 E25.58600 ; skirt
G1 X0.000 Y18.814 F7800.000 ; move to first skirt point
G1 X-1.150 Y18.814 E25.69055 F1080.000 ; skirt
G1 X-2.787 Y18.642 E25.84024 ; skirt
G1 X-5.036 Y18.164 E26.04935 ; skirt
G1 X-6.602 Y17.656 E26.19904 ; skirt
G1 X-8.703 Y16.720 E26.40814 ; skirt
G1 X-10.129 Y15.897 E26.55784 ; skirt
G1 X-11.989 Y14.545 E26.76695 ; skirt
G1 X-13.212 Y13.444 E26.91664 ; skirt
G1 X-14.751 Y11.735 E27.12574 ; skirt
G1 X-15.719 Y10.403 E27.27544 ; skirt
G1 X-16.869 Y8.411 E27.48454 ; skirt
G1 X-17.538 Y6.907 E27.63424 ; skirt
G1 X-18.249 Y4.720 E27.84335 ; skirt
G1 X-18.591 Y3.110 E27.99302 ; skirt
G1 X-18.832 Y0.823 E28.20213 ; skirt
G1 X-18.832 Y-0.823 E28.35183 ; skirt
G1 X-18.591 Y-3.110 E28.56094 ; skirt
G1 X-18.249 Y-4.720 E28.71062 ; skirt
G1 X-17.538 Y-6.907 E28.91973 ; skirt
G1 X-16.869 Y-8.411 E29.06942 ; skirt
G1 X-15.719 Y-10.403 E29.27853 ; skirt
G1 X-14.751 Y-11.735 E29.42822 ; skirt
G1 X-13.212 Y-13.444 E29.63732 ; skirt
G1 X-11.989 Y-14.545 E29.78701 ; skirt
G1 X-10.129 Y-15.897 E29.99612 ; skirt
G1 X-8.703 Y-16.720 E30.14582 ; skirt
G1 X-6.602 Y-17.655 E30.35492 ; skirt
G1 X-5.036 Y-18.164 E30.50461 ; skirt
G1 X-2.787 Y-18.642 E30.71372 ; skirt
G1 X-1.150 Y-18.814 E30.86341 ; skirt
G1 X1.150 Y-18.814 E31.07251 ; skirt
G1 X2.787 Y-18.642 E31.22219 ; skirt
G1 X5.036 Y-18.164 E31.43130 F1080.000 ; skirt
G1 X6.602 Y-17.655 E31.58099 ; skirt
G1 X8.703 Y-16.720 E31.79010 ; skirt
G1 X10.129 Y-15.897 E31.93980 ; skirt
G1 X11.989 Y-14.545 E32.14890 ; skirt
G1 X13.212 Y-13.444 E32.29859 ; skirt
G1 X14.751 Y-11.735 E32.50770 ; skirt
G1 X15.719 Y-10.403 E32.65739 ; skirt
G1 X16.768 Y-8.586 E32.84820 ; skirt
G1 X16.869 Y-8.411 E32.86650 ; skirt
G1 X17.538 Y-6.907 E33.01619 ; skirt
G1 X18.249 Y-4.720 E33.22530 ; skirt
G1 X18.591 Y-3.110 E33.37498 ; skirt
G1 X18.832 Y-0.823 E33.58408 ; skirt
G1 X18.832 Y0.823 E33.73379 ; skirt
G1 X18.591 Y3.110 E33.94290 ; skirt
G1 X18.249 Y4.720 E34.09257 ; skirt
G1 X17.538 Y6.907 E34.30168 ; skirt
G1 X16.869 Y8.411 E34.45137 ; skirt
G1 X15.719 Y10.403 E34.66048 ; skirt
G1 X14.751 Y11.735 E34.81017 ; skirt
G1 X13.212 Y13.444 E35.01928 ; skirt
G1 X11.989 Y14.545 E35.16897 ; skirt
G1 X10.129 Y15.897 E35.37807 ; skirt
G1 X8.703 Y16.720 E35.52777 ; skirt
G1 X6.602 Y17.655 E35.73688 ; skirt
G1 X5.036 Y18.164 E35.88657 ; skirt
G1 X2.787 Y18.642 E36.09567 ; skirt
G1 X1.150 Y18.814 E36.24536 ; skirt
G1 X0.060 Y18.814 E36.34446 ; skirt
G1 X0.000 Y18.189 F7800.000 ; move to first skirt point
G1 X-1.150 Y18.189 E36.44901 F1080.000 ; skirt
G1 X-2.657 Y18.031 E36.58682 ; skirt
G1 X-4.906 Y17.553 E36.79592 ; skirt
G1 X-6.348 Y17.085 E36.93373 ; skirt
G1 X-8.449 Y16.149 E37.14284 ; skirt
G1 X-9.761 Y15.391 E37.28066 ; skirt
G1 X-11.622 Y14.040 E37.48976 ; skirt
G1 X-12.748 Y13.026 E37.62758 ; skirt
G1 X-14.287 Y11.317 E37.83668 ; skirt
G1 X-15.178 Y10.091 E37.97450 ; skirt
G1 X-16.328 Y8.099 E38.18360 ; skirt
G1 X-16.944 Y6.714 E38.32142 ; skirt
G1 X-17.655 Y4.527 E38.53053 ; skirt
G1 X-17.970 Y3.045 E38.66832 ; skirt
G1 X-18.210 Y0.758 E38.87743 ; skirt
G1 X-18.210 Y-0.758 E39.01526 ; skirt
G1 X-17.970 Y-3.045 E39.22436 ; skirt
G1 X-17.655 Y-4.527 E39.36216 ; skirt
G1 X-16.944 Y-6.714 E39.57127 ; skirt
G1 X-16.328 Y-8.099 E39.70909 ; skirt
G1 X-15.178 Y-10.091 E39.91819 ; skirt
G1 X-14.287 Y-11.317 E40.05601 ; skirt
G1 X-12.748 Y-13.026 E40.26511 ; skirt
G1 X-11.622 Y-14.040 E40.40292 ; skirt
G1 X-9.761 Y-15.391 E40.61203 ; skirt
G1 X-8.449 Y-16.149 E40.74985 ; skirt
G1 X-6.348 Y-17.085 E40.95895 ; skirt
G1 X-4.906 Y-17.553 E41.09677 ; skirt
G1 X-2.657 Y-18.031 E41.30587 ; skirt
G1 X-1.150 Y-18.189 E41.44368 ; skirt
G1 X1.150 Y-18.189 E41.65278 ; skirt
G1 X2.657 Y-18.031 E41.79058 ; skirt
G1 X4.906 Y-17.553 E41.99969 F1080.000 ; skirt
G1 X6.348 Y-17.085 E42.13751 ; skirt
G1 X8.449 Y-16.149 E42.34661 ; skirt
G1 X9.761 Y-15.391 E42.48443 ; skirt
G1 X11.622 Y-14.040 E42.69354 ; skirt
G1 X12.748 Y-13.026 E42.83135 ; skirt
G1 X14.287 Y-11.317 E43.04045 ; skirt
G1 X15.178 Y-10.091 E43.17827 ; skirt
G1 X16.227 Y-8.273 E43.36908 ; skirt
G1 X16.328 Y-8.099 E43.38738 ; skirt
G1 X16.944 Y-6.714 E43.52519 ; skirt
G1 X17.655 Y-4.527 E43.73430 ; skirt
G1 X17.970 Y-3.045 E43.87210 ; skirt
G1 X18.210 Y-0.758 E44.08120 ; skirt
G1 X18.210 Y0.758 E44.21903 ; skirt
G1 X17.970 Y3.045 E44.42814 ; skirt
G1 X17.655 Y4.527 E44.56594 ; skirt
G1 X16.944 Y6.714 E44.77504 ; skirt
G1 X16.327 Y8.099 E44.91286 ; skirt
G1 X15.178 Y10.091 E45.12196 ; skirt
G1 X14.287 Y11.317 E45.25978 ; skirt
G1 X12.748 Y13.026 E45.46888 ; skirt
G1 X11.622 Y14.040 E45.60670 ; skirt
G1 X9.761 Y15.391 E45.81580 ; skirt
G1 X8.449 Y16.149 E45.95362 ; skirt
G1 X6.348 Y17.085 E46.16272 ; skirt
G1 X4.906 Y17.553 E46.30054 ; skirt
G1 X2.657 Y18.031 E46.50964 ; skirt
G1 X1.150 Y18.189 E46.64745 ; skirt
G1 X0.060 Y18.189 E46.74655 ; skirt
G1 X0.000 Y17.565 F7800.000 ; move to first skirt point
G1 X-1.150 Y17.565 E46.85110 F1080.000 ; skirt
G1 X-2.527 Y17.420 E46.97703 ; skirt
G1 X-4.777 Y16.942 E47.18613 ; skirt
G1 X-6.094 Y16.514 E47.31207 ; skirt
G1 X-8.195 Y15.578 E47.52117 ; skirt
G1 X-9.394 Y14.886 E47.64711 ; skirt
G1 X-11.254 Y13.534 E47.85622 ; skirt
G1 X-12.284 Y12.608 E47.98215 ; skirt
G1 X-13.822 Y10.899 E48.19126 ; skirt
G1 X-14.637 Y9.778 E48.31719 ; skirt
G1 X-15.786 Y7.787 E48.52630 ; skirt
G1 X-16.350 Y6.521 E48.65224 ; skirt
G1 X-17.060 Y4.334 E48.86134 ; skirt
G1 X-17.348 Y2.980 E48.98726 ; skirt
G1 X-17.589 Y0.693 E49.19637 ; skirt
G1 X-17.589 Y-0.693 E49.32232 ; skirt
G1 X-17.348 Y-2.980 E49.53142 ; skirt
G1 X-17.060 Y-4.334 E49.65734 ; skirt
G1 X-16.350 Y-6.521 E49.86645 ; skirt
G1 X-15.786 Y-7.787 E49.99239 ; skirt
G1 X-14.637 Y-9.778 E50.20149 ; skirt
G1 X-13.822 Y-10.899 E50.32743 ; skirt
G1 X-12.284 Y-12.608 E50.53653 ; skirt
G1 X-11.254 Y-13.534 E50.66247 ; skirt
G1 X-9.394 Y-14.886 E50.87157 ; skirt
G1 X-8.195 Y-15.578 E50.99751 ; skirt
G1 X-6.094 Y-16.514 E51.20662 ; skirt
G1 X-4.777 Y-16.942 E51.33255 ; skirt
G1 X-2.527 Y-17.420 E51.54166 ; skirt
G1 X-1.150 Y-17.565 E51.66759 ; skirt
G1 X1.150 Y-17.565 E51.87669 ; skirt
G1 X2.527 Y-17.420 E52.00262 ; skirt
G1 X4.777 Y-16.942 E52.21172 F1080.000 ; skirt
G1 X6.094 Y-16.514 E52.33766 ; skirt
G1 X8.195 Y-15.578 E52.54676 ; skirt
G1 X9.394 Y-14.886 E52.67270 ; skirt
G1 X11.254 Y-13.534 E52.88181 ; skirt
G1 X12.284 Y-12.608 E53.00774 ; skirt
G1 X13.822 Y-10.899 E53.21685 ; skirt
G1 X14.637 Y-9.778 E53.34278 ; skirt
G1 X15.686 Y-7.961 E53.53359 ; skirt
G1 X15.786 Y-7.787 E53.55189 ; skirt
G1 X16.350 Y-6.521 E53.67783 ; skirt
G1 X17.060 Y-4.334 E53.88693 ; skirt
G1 X17.348 Y-2.980 E54.01286 ; skirt
G1 X17.589 Y-0.693 E54.22196 ; skirt
G1 X17.589 Y0.693 E54.34791 ; skirt
G1 X17.348 Y2.980 E54.55702 ; skirt
G1 X17.060 Y4.334 E54.68294 ; skirt
G1 X16.350 Y6.521 E54.89204 ; skirt
G1 X15.786 Y7.787 E55.01798 ; skirt
G1 X14.637 Y9.778 E55.22708 ; skirt
G1 X13.822 Y10.899 E55.35302 ; skirt
G1 X12.284 Y12.608 E55.56212 ; skirt
G1 X11.254 Y13.534 E55.68806 ; skirt
G1 X9.394 Y14.886 E55.89716 ; skirt
G1 X8.195 Y15.578 E56.02310 ; skirt
G1 X6.094 Y16.514 E56.23221 ; skirt
G1 X4.777 Y16.942 E56.35814 ; skirt
G1 X2.527 Y17.420 E56.56725 ; skirt
G1 X1.150 Y17.565 E56.69318 ; skirt
G1 X0.060 Y17.565 E56.79227 ; skirt
G1 E53.79227 F1800.00000 ; retract
G92 E0 ; reset extrusion distance
G1 X-5.743 Y3.112 F7800.000 ; move to first perimeter point
G1 E3.00000 F1800.00000 ; unretract
G1 X-6.126 Y2.538 E3.06281 F1080.000 ; perimeter
G1 X-6.631 Y0.000 E3.29808 ; perimeter
G1 X-6.126 Y-2.538 E3.53334 ; perimeter
G1 X-4.689 Y-4.689 E3.76861 ; perimeter
G1 X-2.538 Y-6.126 E4.00387 ; perimeter
G1 X-0.357 Y-6.560 E4.20607 ; perimeter
G1 X0.000 Y-6.631 E4.23914 F1080.000 ; perimeter
G1 X2.538 Y-6.126 E4.47440 ; perimeter
G1 X4.689 Y-4.689 E4.70967 ; perimeter
G1 X6.126 Y-2.538 E4.94493 ; perimeter
G1 X6.631 Y-0.000 E5.18020 ; perimeter
G1 X6.126 Y2.538 E5.41546 ; perimeter
G1 X4.689 Y4.689 E5.65073 ; perimeter
G1 X2.538 Y6.126 E5.88599 ; perimeter
G1 X-0.000 Y6.631 E6.12126 ; perimeter
G1 X-2.538 Y6.126 E6.35652 ; perimeter
G1 X-4.689 Y4.689 E6.59179 ; perimeter
G1 X-5.709 Y3.162 E6.75879 ; perimeter
G1 X-5.223 Y2.765 F7800.000 ; move to first perimeter point
G1 X-5.538 Y2.294 E6.81030 F756.000 ; perimeter
G1 X-5.994 Y0.000 E7.02296 ; perimeter
G1 X-5.538 Y-2.294 E7.23562 ; perimeter
G1 X-4.238 Y-4.238 E7.44828 ; perimeter
G1 X-2.294 Y-5.538 E7.66094 ; perimeter
G1 X-0.235 Y-5.947 E7.85183 ; perimeter
G1 X0.000 Y-5.994 E7.87360 F756.000 ; perimeter
G1 X2.294 Y-5.538 E8.08626 ; perimeter
G1 X4.238 Y-4.238 E8.29892 ; perimeter
G1 X5.538 Y-2.294 E8.51158 ; perimeter
G1 X5.994 Y-0.000 E8.72424 ; perimeter
G1 X5.538 Y2.294 E8.93690 ; perimeter
G1 X4.238 Y4.238 E9.14956 ; perimeter
G1 X2.294 Y5.538 E9.36222 ; perimeter
G1 X-0.000 Y5.994 E9.57488 ; perimeter
G1 X-2.294 Y5.538 E9.78754 ; perimeter
G1 X-4.238 Y4.238 E10.00020 ; perimeter
G1 X-5.190 Y2.815 E10.15590 ; perimeter
G1 X-4.703 Y2.418 F7800.000 ; move to first perimeter point
G1 X-4.949 Y2.050 E10.19610 F756.000 ; perimeter
G1 X-5.357 Y0.000 E10.38616 ; perimeter
G1 X-4.949 Y-2.050 E10.57622 ; perimeter
G1 X-3.788 Y-3.788 E10.76627 ; perimeter
G1 X-2.050 Y-4.949 E10.95633 ; perimeter
G1 X-0.113 Y-5.334 E11.13591 ; perimeter
G1 X0.000 Y-5.357 E11.14638 F756.000 ; perimeter
G1 X2.050 Y-4.949 E11.33644 ; perimeter
G1 X3.788 Y-3.788 E11.52649 ; perimeter
G1 X4.949 Y-2.050 E11.71655 ; perimeter
G1 X5.357 Y-0.000 E11.90661 ; perimeter
G1 X4.949 Y2.050 E12.09666 ; perimeter
G1 X3.788 Y3.788 E12.28672 ; perimeter
G1 X2.050 Y4.949 E12.47677 ; perimeter
G1 X-0.000 Y5.357 E12.66683 ; perimeter
G1 X-2.050 Y4.949 E12.85689 ; perimeter
G1 X-3.788 Y3.788 E13.04694 ; perimeter
G1 X-4.670 Y2.468 E13.19134 ; perimeter
G1 X-5.103 Y2.444 F7800.000 ; move inwards before travel
G1 X-8.218 Y4.447 F7800.000 ; move to first perimeter point
G1 X-8.579 Y3.820 E13.25714 F1080.000 ; perimeter
G1 X-9.186 Y1.953 E13.43566 ; perimeter
G1 X-9.391 Y-0.000 E13.61419 ; perimeter
G1 X-9.186 Y-1.953 E13.79271 ; perimeter
G1 X-8.579 Y-3.820 E13.97124 ; perimeter
G1 X-7.598 Y-5.520 E14.14977 ; perimeter
G1 X-6.284 Y-6.979 E14.32829 ; perimeter
G1 X-4.696 Y-8.133 E14.50682 ; perimeter
G1 X-2.902 Y-8.932 E14.68534 ; perimeter
G1 X-0.982 Y-9.340 E14.86387 ; perimeter
G1 X1.014 Y-9.333 E15.04534 ; perimeter
G1 X2.902 Y-8.932 E15.22085 F1080.000 ; perimeter
G1 X4.696 Y-8.133 E15.39938 ; perimeter
G1 X6.284 Y-6.979 E15.57790 ; perimeter
G1 X7.598 Y-5.520 E15.75643 ; perimeter
G1 X8.579 Y-3.820 E15.93495 ; perimeter
G1 X9.186 Y-1.953 E16.11348 ; perimeter
G1 X9.391 Y-0.000 E16.29201 ; perimeter
G1 X9.186 Y1.953 E16.47053 ; perimeter
